packages/core/src/svgs/tokens/branded/CORE.svg

<svg width="24" height="24" viewBox="0 0 24 24" fill="none" xmlns="http://www.w3.org/2000/svg">
<path d="M19.2177 3.21918L10.9619 3.29418V5.30032L11.3869 8.97515L12.0244 10.6751L13.1056 11.55L13.3743 16.3748L14.5304 15.3249L18.2553 15.2811V16.3748L19.3552 16.8747L19.699 17.156L21.7051 17.406V5.8003L21.3427 5.17534L20.7426 4.69411L20.3614 4.13163L19.6115 3.68165L19.2177 3.22542V3.21918Z" fill="#F0F3FA"/>
<path d="M13.25 10.75H13.8749V13.2499H13.25V10.75ZM13.25 13.8749H13.8749V14.4999H13.25V13.8749Z" fill="#0000FF"/>
<path d="M2.625 11.375H13.2495V21.9995H2.625V11.375Z" fill="#808080"/>
<path d="M2 10.75H12.6245V21.3745H2V10.75Z" fill="black"/>
<path d="M2 8.25642H10.1246V20.7496H2V8.25642Z" fill="#808080"/>
<path d="M6.375 5.75031H11.9997V9.50016H6.375V5.75031Z" fill="#808080"/>
<path d="M7 5.11908H11.3747V7.62522H7V5.11908Z" fill="#F0F3FA"/>
<path d="M7.62497 5.75031H11.3747V7.62523H7.62497V5.75031ZM10.2123 2.62546H7.53747V3.12544H7V5.12534H10.7499V3.12544H10.2123V2.62546Z" fill="#808080"/>
<path d="M8.25049 3.25046H10.1254V5.12536H8.25049V3.25046Z" fill="#F0F3FA"/>
<path d="M10.125 5.11908H10.75V5.74405H10.125V5.11908Z" fill="black"/>
<path d="M10.125 3.25046H10.75V3.87543H10.125V3.25046Z" fill="#C0C0C0"/>
<path d="M10.1254 2.62546H10.7504V3.25044H10.1254V2.62546ZM10.1254 4.50038H10.7504V5.12534H10.1254V4.50038ZM8.25049 3.25044H10.1254V3.87541H8.25049V3.25044Z" fill="black"/>
<path d="M9.5 2.62546H10.125V3.25044H9.5V2.62546Z" fill="#C0C0C0"/>
<path d="M8.25049 2.62546H9.50038V3.25044H8.25049V2.62546Z" fill="#F0F3FA"/>
<path d="M8.25049 2.00047H10.1254V2.62544H8.25049V2.00047Z" fill="#808080"/>
<path d="M11.374 6.37526H11.999V9.50014H11.374V6.37526Z" fill="black"/>
<path d="M10.75 7.00648H11.3749V9.50642H10.75V7.00648Z" fill="#FF0000"/>
<path d="M9.49962 8.87518H2.625V20.7497H11.9995V11.3751H9.49962V8.87518Z" fill="#F0F3FA"/>
<path d="M3.87549 11.375H8.87525V12H3.87549V11.375ZM3.87549 12.6249H10.7502V13.2499H3.87549V12.6249ZM3.87549 13.8749H10.7502V14.4999H3.87549V13.8749ZM3.87549 15.1248H10.7502V15.7498H3.87549V15.1248ZM3.87549 16.3748H10.7502V16.9997H3.87549V16.3748ZM3.87549 17.6247H10.7502V18.2497H3.87549V17.6247ZM3.87549 18.8747H10.7502V19.4996H3.87549V18.8747Z" fill="#0000FF"/>
<path d="M4.50049 5.12534H5.12547V7.00025H4.50049V5.12534ZM5.12547 4.50038H5.75044V5.12534H5.12547V4.50038ZM7.00037 2.62546H7.62534V3.25044H8.25031V3.87541H8.87528V4.50038H8.25031V5.12534H7.62534V5.75031H7.00037V4.50038H5.75044V3.87541H7.00037V2.62546ZM16.3749 21.9995V21.3745H14.5V21.9995H16.3749ZM16.9999 21.3745V20.7496H16.3749V21.3745H16.9999ZM18.8748 19.4996V18.8748H18.2498V18.2497H17.6249V17.6247H16.9999V18.2497H16.3749V18.8748H15.7499V19.4996H16.9999V20.7496H17.6249V19.4996H18.8748Z" fill="#FF0000"/>
<path d="M8.25046 7.00023H8.87542V7.62521H8.25046V7.00023ZM9.50035 7.00023H10.1254V7.62521H9.50035V7.00023ZM7.62549 6.37526H8.25046V7.00023H7.62549V6.37526ZM8.87542 6.37526H9.50035V7.00023H8.87542V6.37526ZM10.1254 6.37526H10.7504V7.00023H10.1254V6.37526ZM10.1254 9.50014H10.7504V10.1252H10.1254V9.50014ZM10.7504 10.1252H11.3752V10.75H10.7504V10.1252Z" fill="#C4C4C4"/>
<path d="M10.75 9.50015H11.3749V10.1252H10.75V9.50015ZM11.3749 10.1252H11.9999V10.75H11.3749V10.1252Z" fill="#808080"/>
<path d="M12.0005 10.1252H13.2505V10.75H12.0005V10.1252Z" fill="#0000FF"/>
<path d="M7.62549 7.62522H8.25046V8.25019H7.62549V7.62522ZM8.87542 7.62522H9.50035V8.25019H8.87542V7.62522ZM10.1254 7.62522L10.7504 7.62521V8.25019H10.1254V7.62522ZM7.62549 5.12534H8.25046V5.7503H7.62549V5.12534ZM8.87542 5.12534H9.50035V5.7503H8.87542V5.12534ZM10.1254 5.12534H10.7504V5.7503H10.1254V5.12534Z" fill="#C4C4C4"/>
<path d="M8.25049 4.50039H10.1254V5.12536H8.25049V4.50039ZM19.5 3.25046H20.1248V3.87543H19.5V3.25046ZM20.1248 3.87543H20.7499V4.50039H20.1248V3.87543ZM20.7499 4.50039H21.3749V5.12536H20.7499V4.50039ZM21.3749 5.12536H21.9999V5.75033H21.3749V5.12536Z" fill="#808080"/>
<path d="M19.499 5.75031H21.9989V6.37527H19.499V5.75031Z" fill="black"/>
<path d="M13.25 5.75031H15.7498V6.37527H16.3748V8.87516H15.7498V9.50016H13.25V8.87516H12.625V6.37527H13.25V5.75031ZM15.1249 6.37527H13.8749V8.87516H15.1249V6.37527ZM17.6248 10.1252H20.1246V10.75H20.7496V13.2499H20.1246V13.8749H17.6248V13.2499H16.9998V10.75H17.6248V10.1252ZM19.4997 10.75H18.2497V13.2499H19.4997V10.75ZM16.9998 5.75031H18.2497V9.50016H16.9998V5.75031ZM15.1249 10.1252H16.3748V13.8749H15.1249V10.1252ZM19.4997 6.37527H20.7496V9.50016H19.4997V6.37527Z" fill="#0000FF"/>
<path d="M14.5 14.5H18.2498V15.1248H14.5V14.5Z" fill="#C0C0C0"/>
<path d="M14.5 15.1248H18.2498V15.7498H14.5V15.1248Z" fill="black"/>
<path d="M13.875 15.1248H14.5V15.7498H13.875V15.1248ZM18.2498 15.1248H18.8748V15.7498H18.2498V15.1248Z" fill="#808080"/>
<path d="M18.25 15.7498H18.875V16.9997H18.25V15.7498Z" fill="black"/>
<path d="M18.25 16.3748H19.5V16.9997H18.25V16.3748ZM19.5 16.9997H21.9999V17.6247H19.5V16.9997Z" fill="black"/>
<path d="M21.3746 5.75031H21.9996V17.6247H21.3746V5.75031ZM13.25 15.7498H14.4999V16.9997H13.25V15.7498Z" fill="black"/>
<path d="M18.8746 15.7498H19.4996V16.3749H18.8746V15.7498ZM19.4996 16.3749H21.3745V16.9997H19.4996V16.3749ZM19.4996 2.62546H10.75V3.25044H18.8746V6.37528H19.4996V2.62546Z" fill="#808080"/>
<path d="M10.75 3.25046H11.3749V5.12536H10.75V3.25046Z" fill="black"/>
</svg>

<svg xmlns="http://www.w3.org/2000/svg" width="24" height="24" fill="none" viewBox="0 0 24 24">
    <path fill="#F0F3FA" d="m19.218 3.22-8.256.074V5.3l.425 3.675.637 1.7 1.082.875.268 4.825 1.156-1.05 3.725-.044v1.094l1.1.5.344.281 2.006.25V5.8l-.362-.625-.6-.48-.382-.563-.75-.45-.393-.457z"/>
    <path fill="#00F" d="M13.25 10.75h.625v2.5h-.625zm0 3.125h.625v.625h-.625z"/>
    <path fill="gray" d="M2.625 11.375H13.25V22H2.624z"/>
    <path fill="#000" d="M2 10.75h10.625v10.625H2z"/>
    <path fill="gray" d="M2 8.256h8.125V20.75H2z"/>
    <path fill="gray" d="M6.375 5.75H12V9.5H6.375z"/>
    <path fill="#F0F3FA" d="M7 5.12h4.375v2.505H7z"/>
    <path fill="gray" d="M7.625 5.75h3.75v1.875h-3.75zm2.587-3.125H7.537v.5H7v2h3.75v-2h-.538z"/>
    <path fill="#F0F3FA" d="M8.25 3.25h1.875v1.875H8.25z"/>
    <path fill="#000" d="M10.125 5.12h.625v.624h-.625z"/>
    <path fill="silver" d="M10.125 3.25h.625v.625h-.625z"/>
    <path fill="#000" d="M10.125 2.625h.625v.625h-.625zm0 1.875h.625v.625h-.625zM8.25 3.25h1.875v.625H8.25z"/>
    <path fill="silver" d="M9.5 2.625h.625v.625H9.5z"/>
    <path fill="#F0F3FA" d="M8.25 2.625H9.5v.625H8.25z"/>
    <path fill="gray" d="M8.25 2h1.875v.625H8.25z"/>
    <path fill="#000" d="M11.374 6.375h.625V9.5h-.625z"/>
    <path fill="red" d="M10.75 7.006h.625v2.5h-.625z"/>
    <path fill="#F0F3FA" d="M9.5 8.875H2.625V20.75H12v-9.375H9.5z"/>
    <path fill="#00F" d="M3.875 11.375h5V12h-5zm0 1.25h6.875v.625H3.875zm0 1.25h6.875v.625H3.875zm0 1.25h6.875v.625H3.875zm0 1.25h6.875V17H3.875zm0 1.25h6.875v.625H3.875zm0 1.25h6.875v.625H3.875z"/>
    <path fill="red" d="M4.5 5.125h.625V7H4.5zm.625-.625h.625v.625h-.625zM7 2.625h.625v.625h.625v.625h.625V4.5H8.25v.625h-.625v.625H7V4.5H5.75v-.625H7zM16.375 22v-.625H14.5V22zm.625-.625v-.625h-.625v.625zm1.875-1.875v-.625h-.625v-.625h-.625v-.625H17v.625h-.625v.625h-.625v.625H17v1.25h.625V19.5z"/>
    <path fill="#C4C4C4" d="M8.25 7h.625v.625H8.25zM9.5 7h.625v.625H9.5zm-1.875-.625h.625V7h-.625zm1.25 0H9.5V7h-.625zm1.25 0h.625V7h-.625zm0 3.125h.625v.625h-.625zm.625.625h.625v.625h-.625z"/>
    <path fill="gray" d="M10.75 9.5h.625v.625h-.625zm.625.625H12v.625h-.625z"/>
    <path fill="#00F" d="M12 10.125h1.25v.625H12z"/>
    <path fill="#C4C4C4" d="M7.625 7.625h.625v.625h-.625zm1.25 0H9.5v.625h-.625zm1.25 0h.625v.625h-.625zm-2.5-2.5h.625v.625h-.625zm1.25 0H9.5v.625h-.625zm1.25 0h.625v.625h-.625z"/>
    <path fill="gray" d="M8.25 4.5h1.875v.625H8.25zM19.5 3.25h.625v.625H19.5zm.625.625h.625V4.5h-.625zm.625.625h.625v.625h-.625zm.625.625H22v.625h-.625z"/>
    <path fill="#000" d="M19.499 5.75h2.5v.625h-2.5z"/>
    <path fill="#00F" d="M13.25 5.75h2.5v.625h.625v2.5h-.625V9.5h-2.5v-.625h-.625v-2.5h.625zm1.875.625h-1.25v2.5h1.25zm2.5 3.75h2.5v.625h.625v2.5h-.625v.625h-2.5v-.625H17v-2.5h.625zm1.875.625h-1.25v2.5h1.25zm-2.5-5h1.25V9.5H17zm-1.875 4.375h1.25v3.75h-1.25zm4.375-3.75h1.25V9.5H19.5z"/>
    <path fill="silver" d="M14.5 14.5h3.75v.625H14.5z"/>
    <path fill="#000" d="M14.5 15.125h3.75v.625H14.5z"/>
    <path fill="gray" d="M13.875 15.125h.625v.625h-.625zm4.375 0h.625v.625h-.625z"/>
    <path fill="#000" d="M18.25 15.75h.625V17h-.625z"/>
    <path fill="#000" d="M18.25 16.375h1.25V17h-1.25zM19.5 17H22v.625h-2.5z"/>
    <path fill="#000" d="M21.375 5.75H22v11.875h-.625zm-8.125 10h1.25V17h-1.25z"/>
    <path fill="gray" d="M18.875 15.75h.625v.625h-.625zm.625.625h1.875V17H19.5zm0-13.75h-8.75v.625h8.125v3.125h.625z"/>
    <path fill="#000" d="M10.75 3.25h.625v1.875h-.625z"/>
</svg>
